src/assets/images/level-types/book.svg

<svg width="24" height="24" viewBox="0 0 24 24" fill="none" xmlns="http://www.w3.org/2000/svg">
<path d="M11.2799 6.12996C11.2861 6.08255 11.2779 6.03438 11.2566 5.99162C11.2352 5.94886 11.2015 5.91346 11.1599 5.88996C9.89989 5.09996 6.99989 3.85996 1.50989 3.78996C1.44339 3.78646 1.37691 3.79713 1.31484 3.82126C1.25278 3.8454 1.19655 3.88245 1.14989 3.92996C1.10109 3.97612 1.06252 4.03202 1.03668 4.09404C1.01084 4.15605 0.998307 4.22279 0.999889 4.28996V20.05C0.998558 20.1151 1.01025 20.1799 1.03428 20.2405C1.05831 20.3012 1.09419 20.3564 1.13982 20.4029C1.18546 20.4495 1.23992 20.4865 1.30004 20.5117C1.36015 20.537 1.42469 20.55 1.48989 20.55C6.63989 20.62 9.48989 21.7 10.8799 22.48C10.9171 22.5041 10.9605 22.5169 11.0049 22.5169C11.0492 22.5169 11.0927 22.5041 11.1299 22.48C11.1654 22.4573 11.1949 22.4263 11.2158 22.3898C11.2367 22.3532 11.2484 22.3121 11.2499 22.27C11.2499 22.27 11.2399 6.42996 11.2799 6.12996Z" fill="white"/>
<path d="M19.2499 17.45C19.2482 17.626 19.1855 17.7961 19.0724 17.931C18.9594 18.066 18.8029 18.1575 18.6299 18.19C17.0052 18.4971 15.5085 19.2803 14.3299 20.44C13.9471 20.8801 13.6119 21.3594 13.3299 21.87C13.2989 21.9138 13.2822 21.9662 13.2822 22.02C13.2822 22.0737 13.2989 22.1261 13.3299 22.17C13.3727 22.1988 13.4232 22.2141 13.4749 22.2141C13.5265 22.2141 13.577 22.1988 13.6199 22.17C16.4241 20.9771 19.4539 20.4073 22.4999 20.5C22.5651 20.5 22.6296 20.487 22.6897 20.4617C22.7498 20.4365 22.8043 20.3995 22.8499 20.3529C22.8956 20.3064 22.9314 20.2512 22.9555 20.1905C22.9795 20.1299 22.9912 20.0651 22.9899 20V4.28996C22.9914 4.22279 22.9789 4.15605 22.9531 4.09404C22.9272 4.03202 22.8887 3.97612 22.8399 3.92996C22.7932 3.88245 22.737 3.8454 22.6749 3.82126C22.6128 3.79713 22.5464 3.78646 22.4799 3.78996C21.3699 3.78996 20.3699 3.86996 19.4799 3.95996C19.4197 3.9693 19.3648 3.99943 19.3246 4.04511C19.2844 4.09079 19.2615 4.14913 19.2599 4.20996L19.2499 17.45Z" fill="white"/>
<path d="M17.5698 16.9C17.6217 16.8848 17.6673 16.8532 17.6998 16.81C17.7322 16.7667 17.7498 16.7141 17.7498 16.66V1.72996C17.7495 1.69011 17.7393 1.65096 17.7201 1.61605C17.7009 1.58113 17.6733 1.55154 17.6398 1.52996C17.6048 1.50977 17.5652 1.49915 17.5248 1.49915C17.4844 1.49915 17.4447 1.50977 17.4098 1.52996C16.2435 1.92258 15.1876 2.58764 14.3298 3.46996C13.4998 4.2782 12.9467 5.3283 12.7498 6.46996V19.31C12.749 19.3602 12.764 19.4095 12.7927 19.4507C12.8214 19.492 12.8624 19.5232 12.9098 19.54C12.9572 19.5585 13.009 19.5626 13.0588 19.552C13.1086 19.5413 13.1541 19.5163 13.1898 19.48C14.3822 18.2303 15.8987 17.337 17.5698 16.9Z" fill="white"/>
</svg>

<svg xmlns="http://www.w3.org/2000/svg" width="24" height="24" fill="none"><path fill="#fff" d="M11.28 6.13a.24.24 0 0 0-.12-.24C9.9 5.1 7 3.86 1.51 3.79a.47.47 0 0 0-.36.14.48.48 0 0 0-.15.36v15.76a.49.49 0 0 0 .49.5c5.15.07 8 1.15 9.39 1.93a.23.23 0 0 0 .25 0 .261.261 0 0 0 .12-.21s-.01-15.84.03-16.14M19.25 17.45a.76.76 0 0 1-.62.74 8.34 8.34 0 0 0-4.3 2.25c-.383.44-.718.92-1 1.43a.26.26 0 0 0 0 .3.26.26 0 0 0 .29 0 21.05 21.05 0 0 1 8.88-1.67.49.49 0 0 0 .49-.5V4.29a.482.482 0 0 0-.15-.36.47.47 0 0 0-.36-.14c-1.11 0-2.11.08-3 .17a.26.26 0 0 0-.22.25z"/><path fill="#fff" d="M17.57 16.9a.251.251 0 0 0 .18-.24V1.73a.24.24 0 0 0-.11-.2.23.23 0 0 0-.23 0 7.74 7.74 0 0 0-3.08 1.94 5.49 5.49 0 0 0-1.58 3v12.84a.24.24 0 0 0 .16.23.26.26 0 0 0 .28-.06 9.31 9.31 0 0 1 4.38-2.58"/></svg>
